X:1
T:Ogni cuor
T:André Vierendeels
T:Source : Melody from "Corona di Sacre canzoni o Laude spirituali" (Tenor voice) Firenze---Eredi Francesco Orofri---1689. Editor : André Vierendeels (07/12/17). Notes : Original clef C4, other voices supplied editorially Original note values have been quartered Music compiled by Matteo Coferati
T:Ogni cuor
T:©
T:©
C:André Vierendeels
Z:©
%%score [ 1 2 3 ]
L:1/8
Q:1/4=106
M:3/4
K:C
V:1 treble nm="Soprano" snm="S"
V:2 treble nm="Alto" snm="A"
V:3 treble-8 nm="Tenor" snm="T"
V:1
"^1)" c2 c2 G2 | A3 B c2 | e2 d2 c2 | B3 A G2 | A2 B2 c2 | d3 e d2 | c3 d e2 | c6 | G2 G2 d2 | %9
w: O- gni cuor|giub- bi- li|d'al- ma le-|ti- zi- a,|che la me-|sti- zi- a|gia se n'an-|do,|che la me-|
w: So- na- te|ce- te- re,|ch'il Re di|glo- ri- a,|con fran vit-|to- ri- a|re- su- sci-|to,|con gran vit-|
 B2 e2 c2 | A2 A2 ^G2 | A6 :| %12
w: sti- zi- a|gia se n'an-|do.|
w: to- ri- a|re- su- sci-|to.|
V:2
"^2)""^1)" E2 F2 D2 | E3 G E2 | A2 B2 A2 | D3 D C2 | E2 G2 G2 | A3 G F2 | G3 F G2 | E6 | E2 D2 F2 | %9
w: O- gni cuor|giub- bi- li|d'al- ma le-|ti- zi- a,|che la me-|sti- zi- a|gia se n'an-|do,|che la me-|
w: Ei gia dell'|E- re- bo,|l'i- ra'in- fran-|gi- bi- le,|con piè ter-|ri- bi- le|rup- p'e cal-|co,|con piè ter-|
 E2 B2 A2 | E2 E2 E2 | ^C6 :| %12
w: sti- zi- a|gia se n'an-|do|
w: ri- bi- le|rup- p'e cal-|co.|
V:3
"^3)""^1)""^4)" A2 A2 B2 | c3 B A2 | c2 B2 A2 | G3 F E2 | A2 G2 E2 | F3 E D2 | E3 D C2 | C6 | %8
w: O- gni cuor|giub- bi- li|d'al- ma le-|ti- zi- a,|che la me-|sti- zi- a|gia se n'an-|do,|
w: Gia, gia ris-|pren- de- re|scor- ge- si|l'a- ri- a,|piu bel- la'e|va- ri- a|lu- ce me|da,|
 c2 B2 A2 | ^G3 A A2 | c2 B3 A | A6 :| %12
w: che la me-|sti- zi- a|gia se n'an-|do.|
w: piu bel- la'e|va- ri- a|lu- ce ne|da.|

